client/src/assets/icons/heart.svg

<svg width="35" height="35" viewBox="0 0 35 35" fill="none" xmlns="http://www.w3.org/2000/svg">
<g clip-path="url(#clip0_126_2453)">
<path d="M17.5 31.5291C17.2852 31.5284 17.0766 31.4566 16.9069 31.3249C11.5014 27.1249 7.77778 23.5082 5.17222 19.9402C1.84722 15.3805 1.08889 11.1707 2.91666 7.42768C4.21944 4.75407 7.9625 2.56657 12.3375 3.84018C14.4234 4.4427 16.2434 5.73483 17.5 7.50546C18.7566 5.73483 20.5766 4.4427 22.6625 3.84018C27.0278 2.58601 30.7806 4.75407 32.0833 7.42768C33.9111 11.1707 33.1528 15.3805 29.8278 19.9402C27.2222 23.5082 23.4986 27.1249 18.0931 31.3249C17.9234 31.4566 17.7148 31.5284 17.5 31.5291ZM9.84861 5.4249C8.80761 5.38439 7.77522 5.62814 6.86228 6.13C5.94933 6.63187 5.1903 7.37288 4.66666 8.27351C3.15972 11.3652 3.84028 14.8068 6.74722 18.7832C9.83535 22.769 13.453 26.3147 17.5 29.3221C21.5464 26.3177 25.164 22.7753 28.2528 18.793C31.1694 14.8068 31.8403 11.3652 30.3333 8.28324C29.3611 6.33879 26.4444 4.79296 23.1972 5.70685C22.156 6.01456 21.1908 6.53685 20.3636 7.24011C19.5364 7.94338 18.8656 8.81204 18.3944 9.79018C18.3212 9.9685 18.1966 10.121 18.0365 10.2283C17.8763 10.3357 17.6879 10.393 17.4951 10.393C17.3024 10.393 17.1139 10.3357 16.9538 10.2283C16.7937 10.121 16.6691 9.9685 16.5958 9.79018C16.1282 8.80959 15.4586 7.9389 14.6309 7.2352C13.8032 6.5315 12.8361 6.01066 11.7931 5.70685C11.1611 5.52317 10.5067 5.42828 9.84861 5.4249Z" fill="black"/>
</g>
<defs>
<clipPath id="clip0_126_2453">
<rect width="35" height="35" fill="white"/>
</clipPath>
</defs>
</svg>

<svg xmlns="http://www.w3.org/2000/svg" width="35" height="35" fill="none" viewBox="0 0 35 35">
  <g clip-path="url(#a)">
    <path fill="#000" d="M17.5 31.53a.972.972 0 0 1-.593-.205c-5.406-4.2-9.13-7.817-11.735-11.385-3.325-4.56-4.083-8.77-2.255-12.512 1.302-2.674 5.046-4.861 9.42-3.588A9.596 9.596 0 0 1 17.5 7.505a9.596 9.596 0 0 1 5.163-3.665c4.365-1.254 8.118.914 9.42 3.588 1.828 3.743 1.07 7.952-2.255 12.512-2.606 3.568-6.33 7.185-11.735 11.385a.973.973 0 0 1-.593.204ZM9.849 5.424a5.736 5.736 0 0 0-5.182 2.849c-1.507 3.091-.827 6.533 2.08 10.51A55.415 55.415 0 0 0 17.5 29.321a55.416 55.416 0 0 0 10.753-10.529c2.916-3.986 3.587-7.428 2.08-10.51-.972-1.944-3.888-3.49-7.136-2.576a7.778 7.778 0 0 0-4.802 4.083.972.972 0 0 1-1.8 0 7.709 7.709 0 0 0-4.802-4.083 7.098 7.098 0 0 0-1.944-.282Z"/>
  </g>
  <defs>
    <clipPath id="a">
      <path fill="#fff" d="M0 0h35v35H0z"/>
    </clipPath>
  </defs>
</svg>
